X:73
T: DEN I SO GERNE HAETT
N: F0171A
O: Europa, Mitteleuropa, Oesterreich, Tirol
N: nur 4. Strophe notiert
R: Liebes - Lied
M: 3/4
L: 1/16
K: C
E,2E,2F,2 | G,4E3DC2A,2 | G,3E,E,2
G,2A,2G,2 | G,3D,D,2F,2A,2G,2 | G,3E,E,2
E,2E,2F,2 | G,2G,2E3DC2A,2 | G,3E,E,2
G,2A,2G,2 | G,3D,D,2F2B,3B, | C4z2

